Catalina-light/actions/16/calendar-go-today.svg

<svg xmlns="http://www.w3.org/2000/svg" width="16" height="16" viewBox="0 0 16 16">
 <defs>
  <style id="current-color-scheme" type="text/css">
   .ColorScheme-Text { color:#5c616c; } .ColorScheme-Highlight { color:#5294e2; }
  </style>
 </defs>
 <path style="fill:currentColor" class="ColorScheme-Text" d="M 2 1 C 2 1 1 1 1 2 L 1 6.9941406 L 3 7 L 3 6 L 3.7988281 6 L 5.5039062 4.2929688 L 6.2109375 3.5859375 L 8.625 6 L 13 6 L 13 13 L 7.6601562 13 L 6.2148438 14.458984 L 4.765625 13 L 3.0097656 13 L 3.0097656 11.009766 L 1.0097656 11.003906 L 1.0097656 14 C 1.0097656 14 1.0097656 15 2.0097656 15 L 14.009766 15 C 15.009766 15 15.009766 14 15.009766 14 L 15.009766 2 C 15.009766 2 15.009766 1 14.009766 1 L 2 1 z M 6.2109375 5 L 4.8242188 6.3867188 L 6.4589844 8.0214844 L 0.009765625 8 L 0.009765625 10 L 6.4707031 10.021484 L 4.8359375 11.654297 L 6.2207031 13.041016 L 10.222656 9 L 6.2109375 5 z"/>
</svg>

<svg width="16" height="16" viewBox="0 0 16 16" xmlns="http://www.w3.org/2000/svg">
<defs>
<style id="current-color-scheme" type="text/css">.ColorScheme-Text { color:#5c616c; } .ColorScheme-Highlight { color:#5294e2; }</style>
</defs>
<path class="ColorScheme-Text" d="m2 1s-1 0-1 1v4.9941l2 0.0058594v-1h0.79883l1.7051-1.707 0.70703-0.70703 2.4141 2.4141h4.375v7h-5.3398l-1.4453 1.459-1.4492-1.459h-1.7559v-1.9902l-2-0.00586v2.9961s0 1 1 1h12c1 0 1-1 1-1v-12s0-1-1-1h-12.01zm4.2109 4-1.3867 1.3867 1.6348 1.6348-6.4492-0.021484v2l6.4609 0.021484-1.6348 1.6328 1.3848 1.3867 4.002-4.041-4.0117-4z" fill="currentColor"/>
</svg>
